components/ui-node-icon/src/unnest/unnest.medium.svg

<svg width="24" height="24" viewBox="0 0 24 24" fill="none" xmlns="http://www.w3.org/2000/svg">
  <path fill-rule="evenodd" clip-rule="evenodd" d="M12.5 1.5C13.0523 1.5 13.5 1.94772 13.5 2.5V21.5C13.5 22.0523 13.0523 22.5 12.5 22.5C11.9477 22.5 11.5 22.0523 11.5 21.5V2.5C11.5 1.94772 11.9477 1.5 12.5 1.5ZM17 5C17 4.44772 17.4477 4 18 4H19C20.6569 4 22 5.34315 22 7V10.5858L22.5 11.0858C23.281 11.8668 23.281 13.1332 22.5 13.9142L22 14.4142V18C22 19.6569 20.6569 21 19 21H18C17.4477 21 17 20.5523 17 20C17 19.4477 17.4477 19 18 19H19C19.5523 19 20 18.5523 20 18V14.4142C20 13.8838 20.2107 13.3751 20.5858 13L21.0858 12.5L20.5858 12C20.2107 11.6249 20 11.1162 20 10.5858V7C20 6.44772 19.5523 6 19 6H18C17.4477 6 17 5.55228 17 5ZM6.49997 4C7.05226 4 7.49997 4.44772 7.49997 5C7.49997 5.55228 7.05226 6 6.49997 6H5.49997C4.94769 6 4.49997 6.44772 4.49997 7V10.5858C4.49997 11.1162 4.28926 11.6249 3.91418 12L3.41418 12.5L3.91418 13C4.28926 13.3751 4.49997 13.8838 4.49997 14.4142V18C4.49997 18.5523 4.94769 19 5.49997 19H6.49997C7.05226 19 7.49997 19.4477 7.49997 20C7.49997 20.5523 7.05226 21 6.49997 21H5.49997C3.84312 21 2.49997 19.6569 2.49997 18V14.4142L1.99997 13.9142C1.21892 13.1332 1.21892 11.8668 1.99997 11.0858L2.49997 10.5858V7C2.49997 5.34315 3.84312 4 5.49997 4H6.49997Z" fill="var(--tbl--colors--icons--clean--primary)"/>
</svg>

<svg xmlns="http://www.w3.org/2000/svg" width="24" height="24" fill="none" viewBox="0 0 24 24">
  <path fill="var(--tbl--colors--icons--clean--primary)" fill-rule="evenodd" d="M12.5 1.5a1 1 0 0 1 1 1v19a1 1 0 1 1-2 0v-19a1 1 0 0 1 1-1ZM17 5a1 1 0 0 1 1-1h1a3 3 0 0 1 3 3v3.586l.5.5a2 2 0 0 1 0 2.828l-.5.5V18a3 3 0 0 1-3 3h-1a1 1 0 1 1 0-2h1a1 1 0 0 0 1-1v-3.586A2 2 0 0 1 20.586 13l.5-.5-.5-.5A2 2 0 0 1 20 10.586V7a1 1 0 0 0-1-1h-1a1 1 0 0 1-1-1ZM6.5 4a1 1 0 1 1 0 2h-1a1 1 0 0 0-1 1v3.586A2 2 0 0 1 3.914 12l-.5.5.5.5a2 2 0 0 1 .586 1.414V18a1 1 0 0 0 1 1h1a1 1 0 1 1 0 2h-1a3 3 0 0 1-3-3v-3.586l-.5-.5a2 2 0 0 1 0-2.828l.5-.5V7a3 3 0 0 1 3-3h1Z" clip-rule="evenodd"/>
</svg>
